X:17
T:The Dub Reel
R:reel
C:Michael McGoldrick
Z:Transcribed by Lionel Gueganton
L:1/8
M:4/4
K:Edor
|: E,2BEcd[dE]d | dBAFDEFD    | E,2BEcd[dE]d | dBAdBEED     | 
   E,2BEcd[dE]d | dBAFDEFF    | AF(3GFEFDEC  | DB,A,DB,EED :|
|: E,2EFGFED    | B,DAFDEFD   | E,2EFGFED    | B,DAFFEED    |
   E,2EFGFED    | B,DA,B,D2DF | AF(3GFEFDEC  | DB,A,DB,EED :|

